themes/gaunt.dev/layouts/partials/svgs/logo-1024x1024.svg

<svg viewBox="0 0 1024 1024" fill="none" xmlns="http://www.w3.org/2000/svg"><g clip-path="url(#a)"><mask id="b" style="mask-type:alpha" maskUnits="userSpaceOnUse" x="106" y="166" width="812" height="692"><path d="M238.112 849.002C69.541 810.026 63.489 438.849 213.077 247.38c149.588-191.469 285.784 24.57 450.715-45.971 164.931-70.541 212.09 0 241.102 80.949s9.504 163.897-55.023 249.843-96.041 92.442-186.079 134.915c-100.345 47.335-201.848 233.638-425.68 181.886Z" fill="#FF7867"/></mask><g mask="url(#b)"><path fill="#FFCF00" d="M106 512h812v346H106z"/><path fill="#0060BE" d="M106 166h812v346H106z"/></g></g><path d="M909.901 711.4 820.621 913h-21.024l-89.28-201.6h23.04l77.184 175.104 77.76-175.104h21.6ZM591.064 894.568V913h-142.56V711.4h138.24v18.432H469.816v71.712h104.256v18.144H469.816v74.88h121.248ZM127.863 711.4h82.08c21.312 0 40.128 4.32 56.448 12.96 16.32 8.448 28.992 20.352 38.016 35.712 9.024 15.168 13.536 32.544 13.536 52.128 0 19.584-4.512 37.056-13.536 52.416-9.024 15.168-21.696 27.072-38.016 35.712-16.32 8.448-35.136 12.672-56.448 12.672h-82.08V711.4Zm80.928 183.168c17.664 0 33.12-3.456 46.368-10.368 13.248-7.104 23.52-16.8 30.816-29.088 7.296-12.48 10.944-26.784 10.944-42.912s-3.648-30.336-10.944-42.624c-7.296-12.48-17.568-22.176-30.816-29.088-13.248-7.104-28.704-10.656-46.368-10.656h-59.616v164.736h59.616ZM810.012 616.44c-4.224 0-7.872-1.536-10.944-4.608-2.88-3.072-4.32-6.816-4.32-11.232 0-4.416 1.44-8.064 4.32-10.944 3.072-3.072 6.72-4.608 10.944-4.608 4.224 0 7.872 1.536 10.944 4.608 3.072 2.88 4.608 6.528 4.608 10.944 0 4.416-1.536 8.16-4.608 11.232-3.072 3.072-6.72 4.608-10.944 4.608ZM501.313 431.832h-70.848V413.4h163.008v18.432h-70.848V615h-21.312V431.832ZM298.171 413.4V615h-17.568l-129.6-163.584V615h-21.312V413.4h17.568l129.888 163.584V413.4h21.024ZM810.001 318.728c-26.112 0-46.464-7.488-61.056-22.464-14.592-14.976-21.888-36.768-21.888-65.376V115.4h21.312v114.624c0 23.424 5.28 40.896 15.84 52.416 10.56 11.52 25.824 17.28 45.792 17.28 20.16 0 35.52-5.76 46.08-17.28 10.56-11.52 15.84-28.992 15.84-52.416V115.4h20.736v115.488c0 28.608-7.296 50.4-21.888 65.376-14.4 14.976-34.656 22.464-60.768 22.464ZM568.045 263.144h-112.32L431.533 317h-22.176l92.16-201.6h21.024l92.16 201.6h-22.464l-24.192-53.856Zm-7.776-17.28-48.384-108.288-48.384 108.288h96.768ZM277.441 216.2h20.448v76.896c-9.408 8.256-20.544 14.592-33.408 19.008-12.864 4.416-26.4 6.624-40.608 6.624-20.16 0-38.304-4.416-54.432-13.248-16.128-8.832-28.8-21.024-38.016-36.576-9.216-15.744-13.824-33.312-13.824-52.704 0-19.392 4.608-36.864 13.824-52.416 9.216-15.744 21.888-28.032 38.016-36.864 16.128-8.832 34.368-13.248 54.72-13.248 15.36 0 29.472 2.496 42.336 7.488 12.864 4.8 23.712 12 32.544 21.6l-13.248 13.536c-15.936-15.744-36.192-23.616-60.768-23.616-16.32 0-31.104 3.648-44.352 10.944-13.056 7.104-23.328 17.088-30.816 29.952-7.488 12.672-11.232 26.88-11.232 42.624 0 15.744 3.744 29.952 11.232 42.624 7.488 12.672 17.76 22.656 30.816 29.952 13.056 7.296 27.744 10.944 44.064 10.944 20.736 0 38.304-5.184 52.704-15.552V216.2Z" fill="#15006D"/><defs><clipPath id="a"><path fill="#fff" transform="translate(106 166)" d="M0 0h812v692H0z"/></clipPath></defs></svg>

<svg width="1024" height="1024" viewBox="0 0 1024 1024" fill="none" xmlns="http://www.w3.org/2000/svg">
<g clip-path="url(#clip0_762_133)">
<mask id="mask0_762_133" style="mask-type:alpha" maskUnits="userSpaceOnUse" x="106" y="166" width="812" height="692">
<path d="M238.112 849.002C69.5406 810.026 63.4893 438.849 213.077 247.38C362.665 55.9112 498.861 271.95 663.792 201.409C828.723 130.868 875.882 201.409 904.894 282.358C933.906 363.307 914.398 446.255 849.871 532.201C785.344 618.147 753.83 624.643 663.792 667.116C563.447 714.451 461.944 900.754 238.112 849.002Z" fill="#FF7867"/>
</mask>
<g mask="url(#mask0_762_133)">
<rect x="106" y="512" width="812" height="346" fill="#FFCF00"/>
<rect x="106" y="166" width="812" height="346" fill="#0060BE"/>
</g>
</g>
<path d="M909.901 711.4L820.621 913H799.597L710.317 711.4H733.357L810.541 886.504L888.301 711.4H909.901Z" fill="#15006D"/>
<path d="M591.064 894.568V913H448.504V711.4H586.744V729.832H469.816V801.544H574.072V819.688H469.816V894.568H591.064Z" fill="#15006D"/>
<path d="M127.863 711.4H209.943C231.255 711.4 250.071 715.72 266.391 724.36C282.711 732.808 295.383 744.712 304.407 760.072C313.431 775.24 317.943 792.616 317.943 812.2C317.943 831.784 313.431 849.256 304.407 864.616C295.383 879.784 282.711 891.688 266.391 900.328C250.071 908.776 231.255 913 209.943 913H127.863V711.4ZM208.791 894.568C226.455 894.568 241.911 891.112 255.159 884.2C268.407 877.096 278.679 867.4 285.975 855.112C293.271 842.632 296.919 828.328 296.919 812.2C296.919 796.072 293.271 781.864 285.975 769.576C278.679 757.096 268.407 747.4 255.159 740.488C241.911 733.384 226.455 729.832 208.791 729.832H149.175V894.568H208.791Z" fill="#15006D"/>
<path d="M810.012 616.44C805.788 616.44 802.14 614.904 799.068 611.832C796.188 608.76 794.748 605.016 794.748 600.6C794.748 596.184 796.188 592.536 799.068 589.656C802.14 586.584 805.788 585.048 810.012 585.048C814.236 585.048 817.884 586.584 820.956 589.656C824.028 592.536 825.564 596.184 825.564 600.6C825.564 605.016 824.028 608.76 820.956 611.832C817.884 614.904 814.236 616.44 810.012 616.44Z" fill="#15006D"/>
<path d="M501.313 431.832H430.465V413.4H593.473V431.832H522.625V615H501.313V431.832Z" fill="#15006D"/>
<path d="M298.171 413.4V615H280.603L151.003 451.416V615H129.691V413.4H147.259L277.147 576.984V413.4H298.171Z" fill="#15006D"/>
<path d="M810.001 318.728C783.889 318.728 763.537 311.24 748.945 296.264C734.353 281.288 727.057 259.496 727.057 230.888V115.4H748.369V230.024C748.369 253.448 753.649 270.92 764.209 282.44C774.769 293.96 790.033 299.72 810.001 299.72C830.161 299.72 845.521 293.96 856.081 282.44C866.641 270.92 871.921 253.448 871.921 230.024V115.4H892.657V230.888C892.657 259.496 885.361 281.288 870.769 296.264C856.369 311.24 836.113 318.728 810.001 318.728Z" fill="#15006D"/>
<path d="M568.045 263.144H455.725L431.533 317H409.357L501.517 115.4H522.541L614.701 317H592.237L568.045 263.144ZM560.269 245.864L511.885 137.576L463.501 245.864H560.269Z" fill="#15006D"/>
<path d="M277.441 216.2H297.889V293.096C288.481 301.352 277.345 307.688 264.481 312.104C251.617 316.52 238.081 318.728 223.873 318.728C203.713 318.728 185.569 314.312 169.441 305.48C153.313 296.648 140.641 284.456 131.425 268.904C122.209 253.16 117.601 235.592 117.601 216.2C117.601 196.808 122.209 179.336 131.425 163.784C140.641 148.04 153.313 135.752 169.441 126.92C185.569 118.088 203.809 113.672 224.161 113.672C239.521 113.672 253.633 116.168 266.497 121.16C279.361 125.96 290.209 133.16 299.041 142.76L285.793 156.296C269.857 140.552 249.601 132.68 225.025 132.68C208.705 132.68 193.921 136.328 180.673 143.624C167.617 150.728 157.345 160.712 149.857 173.576C142.369 186.248 138.625 200.456 138.625 216.2C138.625 231.944 142.369 246.152 149.857 258.824C157.345 271.496 167.617 281.48 180.673 288.776C193.729 296.072 208.417 299.72 224.737 299.72C245.473 299.72 263.041 294.536 277.441 284.168V216.2Z" fill="#15006D"/>
<defs>
<clipPath id="clip0_762_133">
<rect width="812" height="692" fill="white" transform="translate(106 166)"/>
</clipPath>
</defs>
</svg>
